X: 3314
T: GENTLE ZITELLA
%R: altz
B: James Kerr "Merry Melodies" v.3 p.34 #314
Z: 2016 John Chambers <jc:trillian.mit.edu>
M: 3/4
L: 1/4
K: G
uD |\
DGA | (Bd2) | dAd | B2D |\
DGA | (Bd2) | dAd | G2 ::\
uB |\
BBB | eBB | BAF | E2F/G/ |\
AAA | dAA | "_D.C. to Allegro."AB^c | d2 :|

%%sep 1 1 500
%%sep 1 1 500

